src/static/logos/tunein.svg

<?xml version="1.0" encoding="UTF-8" standalone="no"?>
<svg width="256px" height="275px" viewBox="0 0 256 275" version="1.1" xmlns="http://www.w3.org/2000/svg" xmlns:xlink="http://www.w3.org/1999/xlink" preserveAspectRatio="xMidYMid">
    <g>
        <path d="M0,108.687749 C0,106.312998 1.92153654,104.391461 4.29859978,104.391461 L125.975103,104.391461 C147.925941,104.391461 165.786288,122.184751 165.786288,144.059282 L165.786288,179.398443 C165.786288,181.782443 163.850877,183.710917 161.471502,183.710917 C161.39982,183.710917 161.305015,183.710917 161.219459,183.722478 L39.6562594,183.710917 C17.7956019,183.710917 0,165.922252 0,144.040784 L0,108.687749 Z M216.843201,104.36695 L251.708337,104.36695 C254.076151,104.36695 256,106.300049 256,108.66555 L256,144.030147 C256,165.902366 238.220584,183.686406 216.346053,183.686406 L181.571097,183.679469 C179.096917,183.679469 177.166131,181.790305 177.166131,179.390119 L177.166131,144.039396 C177.166131,122.16024 194.96867,104.36695 216.843201,104.36695 Z M161.470577,195.112959 L91.2362196,195.112959 C88.863781,195.112959 86.9376198,197.046057 86.9376198,199.411558 L86.9376198,270.131502 C86.9376198,272.54325 88.8822795,274.423165 91.3495232,274.423165 L126.112917,274.430102 C147.985136,274.430102 165.785363,256.641437 165.785363,234.766906 L165.785363,199.411558 C165.785363,197.046057 163.852265,195.112959 161.470577,195.112959 Z M171.552978,45.1988865 C171.552978,70.1626752 151.315568,90.4000853 126.351779,90.4000853 C101.390303,90.4000853 81.152893,70.1626752 81.152893,45.1988865 C81.152893,20.2374101 101.390303,0 126.351779,0 C151.315568,0 171.552978,20.2374101 171.552978,45.1988865 Z" fill="#29B4A7"></path>
    </g>
</svg>

<svg width="256" height="275" xmlns="http://www.w3.org/2000/svg" preserveAspectRatio="xMidYMid"><path d="M0 108.688a4.294 4.294 0 014.299-4.297h121.676c21.95 0 39.811 17.794 39.811 39.668v35.34a4.314 4.314 0 01-4.314 4.312c-.072 0-.167 0-.253.011l-121.563-.011C17.796 183.71 0 165.922 0 144.04v-35.353zm216.843-4.321h34.865a4.302 4.302 0 014.292 4.299v35.364c0 21.872-17.78 39.656-39.654 39.656l-34.775-.007c-2.474 0-4.405-1.889-4.405-4.289v-35.35c0-21.88 17.803-39.673 39.677-39.673zm-55.372 90.746H91.236a4.305 4.305 0 00-4.298 4.299v70.72c0 2.411 1.944 4.291 4.412 4.291l34.763.007c21.872 0 39.672-17.789 39.672-39.663v-35.355c0-2.366-1.933-4.299-4.314-4.299zm10.082-149.914c0 24.964-20.237 45.201-45.201 45.201-24.962 0-45.2-20.237-45.2-45.201C81.153 20.237 101.39 0 126.353 0c24.964 0 45.201 20.237 45.201 45.199z" fill="#29B4A7"/></svg>
